_site/images/verification-page/flexibility-icon.svg

<svg fill="none" height="30" viewBox="0 0 30 30" width="30" xmlns="http://www.w3.org/2000/svg"><rect fill="#00b6ab" height="30" rx="7" width="30"/><path clip-rule="evenodd" d="m23.5211 17.2055c0-.8693-.7046-1.5739-1.5739-1.5739h-4.7218c-.8692 0-1.5739.7046-1.5739 1.5739h-2.3609v-2.3609h1.8336c1.4126.0024 2.6184-1.02 2.8471-2.4139s-.5871-2.74794-1.9263-3.19713c-.7383-1.53958-2.3853-2.4273-4.0772-2.19765-1.6919.22966-3.04268 1.52429-3.34387 3.20498-1.10085.3618-1.77637 1.4691-1.59444 2.6135s1.16753 1.9876 2.32631 1.9902h2.3609v6.2957c0 .4346.3523.787.787.787h3.1478c0 .8692.7047 1.5739 1.5739 1.5739h4.7218c.8693 0 1.5739-.7047 1.5739-1.5739v-1.574c-.0028-.2771-.0789-.5486-.2203-.7869.1414-.2384.2175-.5098.2203-.787zm-14.16602-3.9353c-.43463 0-.78696-.3523-.78696-.787 0-.4346.35233-.7869.78696-.7869s.78692-.3524.78692-.787c-.0131-1.16015.8187-2.15789 1.9623-2.35371s2.26.46833 2.6336 1.56671c.094.2725.3295.4718.6138.5194.6392.1058 1.1026.6666 1.086 1.3143 0 .7258-.5884 1.3142-1.3142 1.3142zm3.93582 7.0824h2.3609c.0029-.2772.0789-.5486.2204-.787-.1415-.2383-.2175-.5098-.2204-.787h-2.3609zm3.9338 1.5752v-1.5739h4.7218v1.5739zm0-4.7229v1.5739h4.7218v-1.5739z" fill="#fff" fill-rule="evenodd"/></svg>

<svg width="30" height="30" viewBox="0 0 30 30" fill="none" xmlns="http://www.w3.org/2000/svg">
<rect width="30" height="30" rx="7" fill="#00B6AB"/>
<path fill-rule="evenodd" clip-rule="evenodd" d="M23.5211 17.2055C23.5211 16.3362 22.8165 15.6316 21.9472 15.6316H17.2254C16.3562 15.6316 15.6515 16.3362 15.6515 17.2055H13.2906V14.8446H15.1242C16.5368 14.847 17.7426 13.8246 17.9713 12.4307C18.2 11.0368 17.3842 9.68276 16.045 9.23357C15.3067 7.69399 13.6597 6.80627 11.9678 7.03592C10.2759 7.26558 8.92512 8.56021 8.62393 10.2409C7.52308 10.6027 6.84756 11.71 7.02949 12.8544C7.21142 13.9988 8.19702 14.842 9.3558 14.8446H11.7167V21.1403C11.7167 21.5749 12.069 21.9273 12.5037 21.9273H15.6515C15.6515 22.7965 16.3562 23.5012 17.2254 23.5012H21.9472C22.8165 23.5012 23.5211 22.7965 23.5211 21.9273V20.3533C23.5183 20.0762 23.4422 19.8047 23.3008 19.5664C23.4422 19.328 23.5183 19.0566 23.5211 18.7794V17.2055ZM9.35508 13.2702C8.92045 13.2702 8.56812 12.9179 8.56812 12.4832C8.56812 12.0486 8.92045 11.6963 9.35508 11.6963C9.78971 11.6963 10.142 11.3439 10.142 10.9093C10.1289 9.74915 10.9607 8.75141 12.1043 8.55559C13.2479 8.35977 14.3643 9.02392 14.7379 10.1223C14.8319 10.3948 15.0674 10.5941 15.3517 10.6417C15.9909 10.7475 16.4543 11.3083 16.4377 11.956C16.4377 12.6818 15.8493 13.2702 15.1235 13.2702H9.35508ZM13.2909 20.3526H15.6518C15.6547 20.0754 15.7307 19.804 15.8722 19.5656C15.7307 19.3273 15.6547 19.0558 15.6518 18.7786H13.2909V20.3526ZM17.2247 21.9278V20.3539H21.9465V21.9278H17.2247ZM17.2247 17.2049V18.7788H21.9465V17.2049H17.2247Z" fill="white"/>
</svg>
